X:1
T:Listening to God
T:Listening to God
T:Edmund Simon Lorenz
T:Mary McCrae Culter, 1908
T:Public Domain Courtesy of the Cyber Hymnal™
T:Public Domain Courtesy of the Cyber Hymnal™
C:Edmund Simon Lorenz
Z:Public Domain
Z:Courtesy of the Cyber Hymnal™
%%score ( 1 2 ) ( 3 4 )
L:1/8
Q:1/4=82
M:4/4
K:Db
V:1 treble 
V:2 treble 
V:3 bass 
V:4 bass 
V:1
 [FA] | [FA][FB][FB][Fd] [Gd]>[Gc] [Gc][Fd] | [Ge][Ec][CA][EG] [DF]2 z [DF] | %3
w: 1.~There’s|mu- sic in my soul to- day, A|mu- sic rich and sweet, Which|
w: 2.~He|tells me of the ten- der care That|guards me night and day; He|
w: 3.~He|bids me fear no e- vil thing But|trust His watch- ful care; He|
 [EF][E=A][Ec][Fd] [Ec]>[DB] [DB][Fd] | [Fd][Fd][Ec][DB] [CA]2 z [FA] | %5
w: fills my life with mel- o- dy And|makes my joy com- plete! For|
w: tells me of a lov- ing hand That|leads me all the way; He|
w: bids me cast on Him the load I|find too great to bear; He|
 [EG][FA][Ac][GB] [GB][FA][FA][F=A] | [GB]>[DG] [B,D][B,E] [CF]2 z [EF] | %7
w: I have heard the whis- per of A|voice that speaks to me Of|
w: speaks the word of com- fort when My|heart is sore op- pressed, And|
w: points me to the bet- ter land Where|bur- dens are laid down, And|
 [DF][DB][Ec][Fd] [Ge][Gd][=Ec][EB] | [FA][Fd] [DF]>[CE] D2 ||"^Refrain" [Fd][FA] | %10
w: par- don, which my Lord be- stows, And|love be- yond de- gree.||
w: whis- pers of the heav’n- ly land, Where|I shall find His rest.|I am|
w: prom- is- es that I shall wear In|Heav’n a vic- tor’s crown.||
 [Gd]>[Gc] [Gc][GB] [Gc]2 [Gc][EG] | [FB]>[FA] [FA][=E=G] [FA]2 z [FA] | %12
w: ||
w: lis- ten- ing to God! I am|lis- ten- ing to God! My|
w: ||
 [GB][Ac][Bd][GB] [=Ge][Gd][Gc][Q:1/4=75][GB] | [Fd]>[FA] [EA][GA] [FA]2 z |] %14
w: ||
w: heart is still, I fear no ill, I’m|lis- ten- ing to God!|
w: ||
V:2
 x | x8 | x8 | x8 | x8 | x8 | x8 | x8 | x4 D2 || x2 | x8 | x8 | x8 | x7 |] %14
V:3
 [D,A,] | [D,D][D,D][D,D][D,A,] [E,A,]>[E,A,] [E,A,][D,A,] | %2
 [A,,A,][A,,A,][A,,A,][A,,A,] [D,A,]2 z [D,A,] | %3
 [F,=A,][F,C][F,A,]F, [B,,F,]>[B,,F,] [B,,F,][B,,A,] | [E,=G,][E,G,][E,G,]E, [A,,E,]2 z [A,,A,] | %5
 [A,,A,][A,,A,][A,,A,][A,,C] [D,D][D,D][D,D][D,D] | [G,D]>[G,B,] G,[G,B,] [F,=A,]2 z [F,A,] | %7
 B,B,B,B, [G,B,][G,B,][=G,C][G,C] | [A,D]A, [A,,A,]>[A,,G,] [D,F,]2 || [D,A,][D,A,] | %10
 [E,A,]>[E,A,] [E,A,][E,A,] [E,A,]2 [A,,E][A,,C] | [D,D]>[D,D] [D,D][D,B,] [D,A,]2 z [D,D] | %12
 [G,D][G,D][G,D][G,D] [E,D][E,B,][E,E][E,D] | [A,D]>[A,D] [A,,C][A,,B,] [D,A,]2 z |] %14
V:4
 x | x8 | x8 | x3 F, x4 | x3 E, x4 | x8 | x2 G, x5 | B,B,B,B, x4 | x A, x4 || x2 | x8 | x8 | x8 | %13
 x7 |] %14

